; generated by SuperSlicer 2.4 on 2024-06-09 at 05:01:39 UTC

; 

; external perimeters extrusion width = 0.42mm
; perimeters extrusion width = 0.46mm
; infill extrusion width = 0.44mm
; solid infill extrusion width = 0.46mm
; top infill extrusion width = 0.44mm
; first layer extrusion width = 0.56mm

; object:{"name":"TESTCOIN","id":"TESTCOIN.stl id:0 copy 0","object_center":[115.500000,115.500000,0.000000],"boundingbox_center":[115.500000,115.500000,0.713911],"boundingbox_size":[40.000053,39.999985,1.427822]}
; Total objects to print: 1
M486 T1
; plater:{"center":[115.500000,115.500000,0.000000],"boundingbox_center":[115.500000,115.500000,0.713911],"boundingbox_size":[40.000053,39.999985,1.427822]}

;TYPE:Custom
G90 ; use absolute coordinates
M83 ; extruder relative mode
M140 S60 ; set final bed temp
M104 S150 ; set temporary nozzle temp to prevent oozing during homing and auto bed leveling
G4 S10 ; allow partial nozzle warmup
G28 ; home all axis
G29 ; auto bed levelling
G1 Z50 F240
G1 X2 Y10 F3000
M104 S205 ; set final nozzle temp
M190 S60 ; wait for bed temp to stabilize
M109 S205 ; wait for nozzle temp to stabilize
G1 Z0.28 F240
G92 E0
G1 Y140 E10 F1500 ; prime the nozzle
G1 X2.3 F5000
G92 E0
G1 Y10 E10 F1200 ; prime the nozzle
G92 E0
M107
G21 ; set units to millimeters
G90 ; use absolute coordinates
M82 ; use absolute distances for extrusion
G92 E0
; Filament gcode
;_TOOLCHANGE 0
M107
;LAYER_CHANGE
;Z:0.2
;HEIGHT:0.2
;BEFORE_LAYER_CHANGE
;0.2


G1 E-0.8 F3600
G1 Z0.2 F9000
;AFTER_LAYER_CHANGE
;0.2
G92 E0
M204 S500
G1 X99.462 Y98.746
G1 E0.8 F2400
;TYPE:Skirt
;WIDTH:0.48
G1 F1200
G1 X98.19 Y100.027 E0.86106
G1 X96.667 Y101.921 E0.94318
G1 X95.435 Y103.818 E1.01963
G1 X94.324 Y105.98 E1.10178
G1 X93.794 Y107.258 E1.14855
G1 X93.052 Y109.572 E1.23069
G1 X92.555 Y111.951 E1.31283
G1 X92.31 Y114.369 E1.39497
G1 X92.31 Y116.631 E1.47143
G1 X92.555 Y119.049 E1.55356
G1 X93.052 Y121.428 E1.63571
G1 X93.794 Y123.742 E1.71784
G1 X94.775 Y125.965 E1.79998
G1 X95.435 Y127.182 E1.84676
G1 X96.766 Y129.215 E1.92891
G1 X98.302 Y131.098 E2.01104
G1 X100.027 Y132.81 E2.09318
G1 X101.785 Y134.234 E2.16964
G1 X103.818 Y135.565 E2.25178
G1 X105.98 Y136.676 E2.33391
G1 X108.245 Y137.555 E2.41606
G1 X110.59 Y138.193 E2.49819
G1 X111.951 Y138.445 E2.54497
G1 X114.369 Y138.69 E2.62711
G1 X116.799 Y138.681 E2.70925
G1 X119.215 Y138.418 E2.79139
G1 X121.428 Y137.948 E2.86784
G1 X123.742 Y137.206 E2.94998
G1 X125.965 Y136.225 E3.03212
G1 X128.074 Y135.018 E3.11426
G1 X129.215 Y134.234 E3.16104
G1 X131.098 Y132.698 E3.24318
G1 X132.698 Y131.098 E3.31964
G1 X134.234 Y129.215 E3.40177
G1 X135.565 Y127.182 E3.48392
G1 X136.676 Y125.02 E3.56605
G1 X137.555 Y122.755 E3.6482
G1 X138.193 Y120.41 E3.73033
G1 X138.581 Y118.011 E3.81247
G1 X138.69 Y116.631 E3.85925
G1 X138.681 Y114.201 E3.9414
G1 X138.418 Y111.785 E4.02353
G1 X137.948 Y109.572 E4.09998
G1 X137.206 Y107.258 E4.18212
G1 X136.225 Y105.035 E4.26426
G1 X135.018 Y102.926 E4.3464
G1 X134.234 Y101.785 E4.39318
G1 X132.698 Y99.902 E4.47531
G1 X131.098 Y98.302 E4.55178
G1 X129.215 Y96.767 E4.6339
G1 X127.182 Y95.436 E4.71603
G1 X125.02 Y94.324 E4.79819
G1 X122.755 Y93.445 E4.88034
G1 X120.41 Y92.808 E4.96245
G1 X118.011 Y92.419 E5.04459
G1 X116.631 Y92.31 E5.09138
G1 X114.201 Y92.319 E5.17351
G1 X111.95 Y92.555 E5.25001
G1 X109.572 Y93.052 E5.33214
G1 X107.258 Y93.794 E5.41425
G1 X105.98 Y94.324 E5.46104
G1 X103.818 Y95.436 E5.5432
G1 X101.785 Y96.767 E5.62533
G1 X99.902 Y98.303 E5.70746
G1 X99.505 Y98.703 E5.72653
G92 E0
G1 E-0.56 F3600
;WIPE_START
G1 F7200
G1 X99.166 Y99.044 E-0.788
;WIPE_END
G1 E-0.8 F3600
; printing object TESTCOIN.stl id:0 copy 0
M486 S0
; acceleration to travel
M204 S1500
G1 X101.985 Y101.393 F9000
; decel to extrusion
M204 S500
G1 X102.33 Y101.681
; end travel
G1 E0 F2400
;TYPE:Internal perimeter
;WIDTH:0.564
G1 F1200
G1 X102.722 Y101.309 E0.02177
G1 X103.482 Y100.659 E0.06206
G1 X104.275 Y100.051 E0.10235
G1 X105.099 Y99.484 E0.14263
G1 X105.952 Y98.962 E0.18293
G1 X106.83 Y98.485 E0.22321
G1 X107.733 Y98.054 E0.2635
G1 X108.656 Y97.672 E0.30377
G1 X109.599 Y97.338 E0.34407
G1 X110.557 Y97.054 E0.38435
G1 X111.53 Y96.821 E0.42464
G1 X112.513 Y96.639 E0.46493
G1 X113.504 Y96.508 E0.50521
G1 X114.501 Y96.43 E0.5455
G1 X115.5 Y96.403 E0.58578
G1 X115.825 Y96.412 E0.59889
G1 X116.499 Y96.43 E0.62607
G1 X117.496 Y96.508 E0.66636
G1 X118.487 Y96.639 E0.70664
G1 X119.47 Y96.821 E0.74693
G1 X120.443 Y97.054 E0.78722
G1 X121.401 Y97.338 E0.82751
G1 X122.344 Y97.672 E0.8678
G1 X123.267 Y98.054 E0.90807
G1 X124.17 Y98.485 E0.94836
G1 X125.048 Y98.962 E0.98864
G1 X125.901 Y99.484 E1.02894
G1 X126.725 Y100.051 E1.06922
G1 X127.518 Y100.659 E1.10951
G1 X128.278 Y101.309 E1.1498
G1 X129.003 Y101.997 E1.19008
G1 X129.692 Y102.722 E1.23037
G1 X130.341 Y103.482 E1.27066
G1 X130.95 Y104.275 E1.31094
G1 X131.516 Y105.099 E1.35122
G1 X132.038 Y105.952 E1.39151
G1 X132.515 Y106.83 E1.43179
G1 X132.946 Y107.733 E1.47208
G1 X133.328 Y108.656 E1.51237
G1 X133.662 Y109.599 E1.55265
G1 X133.946 Y110.557 E1.59294
G1 X134.179 Y111.53 E1.63322
G1 X134.362 Y112.513 E1.67351
G1 X134.492 Y113.504 E1.7138
G1 X134.57 Y114.501 E1.75408
G1 X134.597 Y115.5 E1.79437
G1 X134.57 Y116.499 E1.83466
G1 X134.492 Y117.496 E1.87494
G1 X134.362 Y118.487 E1.91523
G1 X134.179 Y119.47 E1.95552
G1 X133.946 Y120.443 E1.9958
G1 X133.662 Y121.401 E2.03609
G1 X133.328 Y122.344 E2.07637
G1 X132.946 Y123.267 E2.11666
G1 X132.515 Y124.17 E2.15695
G1 X132.038 Y125.048 E2.19723
G1 X131.516 Y125.901 E2.23752
G1 X130.95 Y126.725 E2.2778
G1 X130.341 Y127.518 E2.31809
G1 X129.692 Y128.278 E2.35838
G1 X129.003 Y129.003 E2.39866
G1 X128.278 Y129.692 E2.43895
G1 X127.518 Y130.341 E2.47924
G1 X126.725 Y130.949 E2.51952
G1 X125.901 Y131.516 E2.55981
G1 X125.048 Y132.038 E2.60009
G1 X124.17 Y132.515 E2.64038
G1 X123.267 Y132.946 E2.68067
G1 X122.344 Y133.328 E2.72095
G1 X121.401 Y133.662 E2.76124
G1 X120.443 Y133.946 E2.80153
G1 X119.47 Y134.179 E2.84181
G1 X118.487 Y134.362 E2.8821
G1 X117.496 Y134.492 E2.92238
G1 X116.499 Y134.57 E2.96267
G1 X115.5 Y134.597 E3.00296
G1 X114.501 Y134.57 E3.04324
G1 X113.504 Y134.492 E3.08353
G1 X112.513 Y134.362 E3.12382
G1 X111.53 Y134.179 E3.1641
G1 X110.557 Y133.946 E3.20439
G1 X109.599 Y133.662 E3.24467
G1 X108.656 Y133.328 E3.28496
G1 X107.733 Y132.946 E3.32525
G1 X106.83 Y132.515 E3.36553
G1 X105.952 Y132.038 E3.40582
G1 X105.099 Y131.516 E3.44611
G1 X104.275 Y130.949 E3.48639
G1 X103.482 Y130.341 E3.52668
G1 X102.722 Y129.692 E3.56696
G1 X101.997 Y129.003 E3.60725
G1 X101.308 Y128.278 E3.64754
G1 X100.659 Y127.518 E3.68782
G1 X100.05 Y126.725 E3.72811
G1 X99.484 Y125.901 E3.76839
G1 X98.962 Y125.048 E3.80868
G1 X98.485 Y124.17 E3.84897
G1 X98.054 Y123.267 E3.88925
G1 X97.672 Y122.344 E3.92954
G1 X97.338 Y121.401 E3.96983
G1 X97.054 Y120.443 E4.01011
G1 X96.821 Y119.47 E4.0504
G1 X96.639 Y118.487 E4.09069
G1 X96.508 Y117.496 E4.13097
G1 X96.43 Y116.499 E4.17126
G1 X96.403 Y115.5 E4.21154
G1 X96.43 Y114.501 E4.25183
G1 X96.508 Y113.504 E4.29212
G1 X96.639 Y112.513 E4.3324
G1 X96.821 Y111.53 E4.37269
G1 X97.054 Y110.557 E4.41297
G1 X97.338 Y109.599 E4.45326
G1 X97.672 Y108.656 E4.49355
G1 X98.054 Y107.733 E4.53383
G1 X98.485 Y106.83 E4.57412
G1 X98.962 Y105.952 E4.6144
G1 X99.484 Y105.099 E4.65469
G1 X100.05 Y104.275 E4.69497
G1 X100.659 Y103.482 E4.73526
G1 X101.308 Y102.722 E4.77555
G1 X101.997 Y101.997 E4.81583
G1 X102.286 Y101.722 E4.83193
G1 X101.971 Y101.303 F9000
;TYPE:External perimeter
G1 F1200
G1 X102.373 Y100.921 E4.85425
G1 X103.154 Y100.254 E4.89563
G1 X103.969 Y99.629 E4.93702
G1 X104.815 Y99.047 E4.97841
G1 X105.691 Y98.51 E5.0198
G1 X106.594 Y98.02 E5.06118
G1 X107.521 Y97.578 E5.10257
G1 X108.47 Y97.185 E5.14395
G1 X109.438 Y96.842 E5.18534
G1 X110.423 Y96.551 E5.22672
G1 X111.421 Y96.311 E5.26811
G1 X112.431 Y96.124 E5.3095
G1 X113.449 Y95.989 E5.35088
G1 X114.473 Y95.909 E5.39227
G1 X115.5 Y95.882 E5.43365
G1 X115.839 Y95.891 E5.44731
G1 X116.527 Y95.909 E5.47504
G1 X117.551 Y95.989 E5.51643
G1 X118.569 Y96.124 E5.55781
G1 X119.579 Y96.311 E5.5992
G1 X120.577 Y96.551 E5.64059
G1 X121.562 Y96.842 E5.68197
G1 X122.531 Y97.185 E5.72336
G1 X123.479 Y97.578 E5.76474
G1 X124.406 Y98.02 E5.80612
G1 X125.309 Y98.51 E5.84751
G1 X126.185 Y99.047 E5.88891
G1 X127.031 Y99.629 E5.93029
G1 X127.846 Y100.254 E5.97168
G1 X128.627 Y100.921 E6.01306
G1 X129.372 Y101.628 E6.05445
G1 X130.079 Y102.373 E6.09583
G1 X130.746 Y103.154 E6.13722
G1 X131.371 Y103.969 E6.17861
G1 X131.953 Y104.815 E6.21999
G1 X132.49 Y105.691 E6.26137
G1 X132.98 Y106.594 E6.30276
G1 X133.422 Y107.521 E6.34414
G1 X133.815 Y108.47 E6.38553
G1 X134.158 Y109.438 E6.42691
G1 X134.449 Y110.423 E6.4683
G1 X134.689 Y111.421 E6.50968
G1 X134.876 Y112.431 E6.55107
G1 X135.01 Y113.449 E6.59246
G1 X135.091 Y114.473 E6.63384
G1 X135.118 Y115.5 E6.67523
G1 X135.091 Y116.527 E6.71661
G1 X135.01 Y117.551 E6.758
G1 X134.876 Y118.569 E6.79939
G1 X134.689 Y119.579 E6.84077
G1 X134.449 Y120.577 E6.88216
G1 X134.158 Y121.562 E6.92354
G1 X133.815 Y122.53 E6.96493
G1 X133.422 Y123.479 E7.00632
G1 X132.98 Y124.406 E7.0477
G1 X132.49 Y125.309 E7.08909
G1 X131.953 Y126.185 E7.13047
G1 X131.371 Y127.031 E7.17186
G1 X130.746 Y127.846 E7.21324
G1 X130.079 Y128.627 E7.25463
G1 X129.372 Y129.372 E7.29602
G1 X128.627 Y130.079 E7.3374
G1 X127.846 Y130.746 E7.37879
G1 X127.031 Y131.371 E7.42017
G1 X126.185 Y131.953 E7.46156
G1 X125.309 Y132.49 E7.50295
G1 X124.406 Y132.98 E7.54433
G1 X123.479 Y133.422 E7.58572
G1 X122.53 Y133.815 E7.6271
G1 X121.562 Y134.158 E7.66849
G1 X120.577 Y134.449 E7.70988
G1 X119.579 Y134.689 E7.75126
G1 X118.569 Y134.876 E7.79265
G1 X117.551 Y135.01 E7.83403
G1 X116.527 Y135.091 E7.87542
G1 X115.5 Y135.118 E7.91681
G1 X114.473 Y135.091 E7.95819
G1 X113.449 Y135.01 E7.99958
G1 X112.431 Y134.876 E8.04096
G1 X111.421 Y134.689 E8.08235
G1 X110.423 Y134.449 E8.12373
G1 X109.438 Y134.158 E8.16512
G1 X108.47 Y133.815 E8.20651
G1 X107.521 Y133.422 E8.24789
G1 X106.594 Y132.98 E8.28928
G1 X105.691 Y132.49 E8.33066
G1 X104.815 Y131.953 E8.37205
G1 X103.969 Y131.371 E8.41344
G1 X103.154 Y130.746 E8.45482
G1 X102.373 Y130.079 E8.49621
G1 X101.628 Y129.372 E8.53759
G1 X100.921 Y128.627 E8.57898
G1 X100.254 Y127.846 E8.62037
G1 X99.629 Y127.031 E8.66175
G1 X99.047 Y126.185 E8.70314
G1 X98.51 Y125.309 E8.74452
G1 X98.02 Y124.406 E8.78591
G1 X97.578 Y123.479 E8.8273
G1 X97.185 Y122.53 E8.86868
G1 X96.842 Y121.562 E8.91007
G1 X96.551 Y120.577 E8.95145
G1 X96.311 Y119.579 E8.99284
G1 X96.124 Y118.569 E9.03423
G1 X95.99 Y117.551 E9.07561
G1 X95.909 Y116.527 E9.117
G1 X95.882 Y115.5 E9.15838
G1 X95.909 Y114.473 E9.19977
G1 X95.99 Y113.449 E9.24115
G1 X96.124 Y112.431 E9.28254
G1 X96.311 Y111.421 E9.32393
G1 X96.551 Y110.423 E9.36531
G1 X96.842 Y109.438 E9.4067
G1 X97.185 Y108.47 E9.44808
G1 X97.578 Y107.521 E9.48947
G1 X98.02 Y106.594 E9.53085
G1 X98.51 Y105.691 E9.57224
G1 X99.047 Y104.815 E9.61363
G1 X99.629 Y103.969 E9.65501
G1 X100.254 Y103.154 E9.69639
G1 X100.921 Y102.373 E9.73778
G1 X101.628 Y101.628 E9.77917
G1 X101.928 Y101.344 E9.79581
;WIPE_START
G1 X102.355 Y101.416 F9000
;WIPE_END
G92 E0
G1 E-0.56 F3600
;WIPE_START
G1 F7200
G1 X102.68 Y101.063 E-0.788
;WIPE_END
G1 E-0.8 F3600
; acceleration to travel
M204 S1500
G1 X127.763 Y104.013 F9000
; decel to extrusion
M204 S500
G1 X130.827 Y104.373
; end travel
G1 E0 F2400
;TYPE:Solid infill
;WIDTH:0.562783
G1 F1200
G1 X128.448 Y101.994 E0.13531
G1 X128.024 Y101.591 E0.1588
G1 X127.278 Y100.955 E0.19821
G1 X126.501 Y100.358 E0.23761
G1 X125.693 Y99.804 E0.27701
G1 X125.246 Y99.529 E0.29811
G1 X131.471 Y105.754 E0.65207
G1 X131.709 Y106.142 E0.67036
G1 X132.176 Y107.003 E0.70976
G1 X132.352 Y107.372 E0.72621
G1 X123.627 Y98.647 E1.22234
G1 X123.113 Y98.402 E1.24527
G1 X122.315 Y98.071 E1.28
G1 X132.929 Y108.686 E1.88355
G1 X132.973 Y108.793 E1.88821
G1 X133.3 Y109.716 E1.92761
G1 X133.333 Y109.827 E1.93223
G1 X121.174 Y97.667 E2.62363
G1 X120.344 Y97.422 E2.65842
G1 X120.143 Y97.373 E2.66674
G1 X133.627 Y110.858 E3.43349
G1 X133.807 Y111.609 E3.46455
G1 X133.845 Y111.813 E3.47289
G1 X119.187 Y97.155 E4.30635
G1 X118.428 Y97.014 E4.33742
G1 X118.292 Y96.996 E4.34293
G1 X134.004 Y112.708 E5.23635
G1 X134.115 Y113.556 E5.27073
G1 X117.444 Y96.886 E6.21864
G1 X116.663 Y96.841 E6.25013
G1 X134.178 Y114.356 E7.24608
G1 X134.191 Y114.52 E7.25271
G1 X134.206 Y115.122 E7.27689
G1 X115.881 Y96.796 E8.31892
G1 X115.817 Y96.792 E8.3215
G1 X115.149 Y96.801 E8.34835
G1 X134.207 Y115.859 E9.43202
G1 X134.191 Y116.48 E9.45698
G1 X134.183 Y116.572 E9.46072
G1 X114.428 Y96.817 E10.58407
G1 X113.744 Y96.871 E10.61163
G1 X134.129 Y117.256 E11.77078
G1 X134.114 Y117.456 E11.77888
G1 X134.053 Y117.916 E11.79753
G1 X113.084 Y96.947 E12.9899
G1 X112.572 Y97.014 E13.01065
G1 X112.439 Y97.039 E13.01609
G1 X133.961 Y118.561 E14.23989
G1 X133.846 Y119.183 E14.26531
G1 X111.817 Y97.154 E15.51791
G1 X111.609 Y97.193 E15.52644
G1 X111.214 Y97.288 E15.54276
G1 X133.712 Y119.786 E16.82208
G1 X133.578 Y120.344 E16.84516
G1 X133.568 Y120.379 E16.84661
G1 X110.621 Y97.432 E18.15143
G1 X110.053 Y97.6 E18.17527
G1 X133.4 Y120.947 E19.50284
G1 X133.3 Y121.284 E19.51694
G1 X133.221 Y121.506 E19.52642
G1 X109.494 Y97.779 E20.87562
G1 X108.95 Y97.971 E20.89883
G1 X133.029 Y122.05 E22.26801
G1 X132.973 Y122.207 E22.27472
G1 X132.82 Y122.578 E22.29085
G1 X108.422 Y98.18 E23.67815
G1 X107.901 Y98.396 E23.70083
G1 X132.604 Y123.099 E25.1055
G1 X132.366 Y123.598 E25.12774
G1 X107.401 Y98.634 E26.54731
G1 X107.003 Y98.824 E26.56505
G1 X106.907 Y98.876 E26.56946
G1 X132.124 Y124.093 E28.00338
G1 X131.865 Y124.571 E28.02523
G1 X106.429 Y99.135 E29.47156
G1 X106.142 Y99.291 E29.4847
G1 X105.96 Y99.403 E29.49329
G1 X131.597 Y125.04 E30.9511
G1 X131.317 Y125.497 E30.97264
G1 X105.503 Y99.683 E32.4405
G1 X105.307 Y99.804 E32.44977
G1 X105.058 Y99.975 E32.46191
G1 X131.026 Y125.942 E33.93852
G1 X130.725 Y126.379 E33.95982
G1 X104.621 Y100.275 E35.4442
G1 X104.499 Y100.358 E35.45015
G1 X104.198 Y100.589 E35.46538
G1 X130.411 Y126.802 E36.9559
G1 X130.091 Y127.219 E36.97704
G1 X103.782 Y100.909 E38.47307
G1 X103.722 Y100.955 E38.47611
G1 X103.381 Y101.246 E38.4941
G1 X129.754 Y127.619 E39.99376
G1 X129.415 Y128.016 E40.01477
G1 X102.984 Y101.585 E41.51772
G1 X102.605 Y101.944 E41.53868
G1 X129.057 Y128.395 E43.04277
G1 X128.734 Y128.734 E43.06159
G1 X128.696 Y128.771 E43.06373
G1 X102.229 Y102.304 E44.56869
G1 X101.87 Y102.682 E44.58965
G1 X128.318 Y129.13 E46.09352
G1 X128.024 Y129.409 E46.10982
G1 X127.935 Y129.484 E46.11449
G1 X101.516 Y103.065 E47.61677
G1 X101.176 Y103.462 E47.63779
G1 X127.538 Y129.824 E49.13677
G1 X127.278 Y130.045 E49.15048
G1 X127.134 Y130.156 E49.15782
G1 X100.844 Y103.867 E50.65274
G1 X100.524 Y104.284 E50.67387
G1 X126.717 Y130.476 E52.16326
G1 X126.501 Y130.642 E52.17418
G1 X126.29 Y130.787 E52.18448
G1 X100.213 Y104.71 E53.66728
G1 X99.913 Y105.147 E53.68858
G1 X125.853 Y131.087 E55.16361
G1 X125.694 Y131.197 E55.17141
G1 X125.404 Y131.374 E55.18507
G1 X99.626 Y105.596 E56.65088
G1 X99.346 Y106.053 E56.67243
G1 X124.947 Y131.654 E58.12817
G1 X124.858 Y131.709 E58.13236
G1 X124.473 Y131.918 E58.14997
G1 X99.082 Y106.527 E59.59376
G1 X98.823 Y107.004 E59.61561
G1 X123.996 Y132.177 E61.04699
G1 X123.497 Y132.415 E61.06921
G1 X98.585 Y107.503 E62.48575
G1 X98.402 Y107.887 E62.50286
G1 X98.352 Y108.007 E62.50808
G1 X122.993 Y132.648 E63.9092
G1 X122.472 Y132.864 E63.93188
G1 X98.136 Y108.528 E65.31564
G1 X98.027 Y108.793 E65.32714
G1 X97.932 Y109.061 E65.33858
G1 X121.939 Y133.068 E66.70369
G1 X121.395 Y133.261 E66.7269
G1 X97.739 Y109.605 E68.07202
G1 X97.7 Y109.716 E68.07676
G1 X97.566 Y110.169 E68.09573
G1 X120.831 Y133.434 E69.41867
G1 X120.344 Y133.578 E69.4391
G1 X120.259 Y133.599 E69.44261
G1 X97.401 Y110.741 E70.74237
G1 X97.259 Y111.335 E70.76695
G1 X119.665 Y133.741 E72.04103
G1 X119.391 Y133.807 E72.05234
G1 X119.056 Y133.869 E72.06606
G1 X97.131 Y111.944 E73.31279
G1 X97.015 Y112.566 E73.33821
G1 X118.434 Y133.985 E74.55613
G1 X117.783 Y134.071 E74.58253
G1 X96.929 Y113.217 E75.76833
